src/svgs/safari.svg

<svg xmlns="http://www.w3.org/2000/svg" viewBox="0 0 5120 5120"><linearGradient id="a" x2="0" y2="100%"><stop offset="0" stop-color="#19d7ff"/><stop offset="1" stop-color="#1e64f0"/></linearGradient><g fill="#fff"><rect width="5130" height="5120" rx="1050"/><circle cx="2560" cy="2560" r="2240" fill="url(#a)"/><path fill="red" d="M4090 1020 2370 2370l4e2 4e2z"/><path d="M1020 4090l1350-1720 4e2 4e2z"/></g><path stroke="#fff" stroke-width="30" d="M2560 540v330m0 3370v330m350-4e3-57 325m-586 3318-57 327M3250 662l-113 310M1984 4138l-113 310m339-3878 57 325m586 3318 57 327M1870 662l113 310m1152 3166 113 310M1552 810l166 286m1685 2918 165 286M1265 1010l212 253m2166 2582 212 253M1015 1258l253 212m2582 2168 253 212M813 1548l286 165m2920 1685 286 165M665 1866l310 113m3166 1150 310 113M574 2202l326 58m3320 588 325 57M545 2555h330m3370 0h330M575 2905l325-57m3320-586 325-57M668 3245l310-113m3165-1152 310-113M815 3563l286-165m2920-1685 286-165M1016 3850l253-212m2580-2166 253-212M1262 41e2l212-253m2166-2582 212-253M1552 43e2l166-286m1685-2918 165-286M2384 548l16 180m320 3656 16 180M2038 610l47 174m950 3544 47 174M1708 730l76 163m1550 3326 77 163M1404 904l103 148m2106 3006 103 148M1135 1130l127 127m2596 2596 127 127M910 14e2l148 103m3006 2107 146 1e2M734 1703l163 76m3326 1550 163 77M614 2033l174 47m3544 950 174 47M553 2380l180 16m3656 320 180 16m-4014 0 180-16m3656-320 180-16M614 3077l174-47m3544-950 174-47M734 3407l163-76m3326-1550 163-76M910 3710l148-103m3006-2107 146-1e2M1404 4206l103-148m2105-3006 104-148M1708 4380l77-163M3335 890l77-163M2038 45e2l47-174m950-3544 47-174m-698 3952 16-180m320-3656 16-180"/></svg>

<?xml version="1.0" encoding="utf-8"?>
<!-- Generator: Adobe Illustrator 28.0.0, SVG Export Plug-In . SVG Version: 6.00 Build 0)  -->
<svg version="1.1" id="Layer_1" xmlns="http://www.w3.org/2000/svg" xmlns:xlink="http://www.w3.org/1999/xlink" x="0px" y="0px"
	 viewBox="0 0 5120 5120" style="enable-background:new 0 0 5120 5120;" xml:space="preserve">
<style type="text/css">
	.st0{fill:url(#SVGID_1_);}
	.st1{fill:#FF0000;}
	.st2{fill:#FFFFFF;}
	.st3{stroke:#FFFFFF;stroke-width:30;}
</style>
<linearGradient id="SVGID_1_" gradientUnits="userSpaceOnUse" x1="2253.9968" y1="2956.4832" x2="2253.9968" y2="2955.4832" gradientTransform="matrix(4480 0 0 -4480 -10095346 13245364)">
	<stop  offset="0" style="stop-color:#19D7FF"/>
	<stop  offset="1" style="stop-color:#1E64F0"/>
</linearGradient>
<circle class="st0" cx="2560" cy="2560" r="2240"/>
<path class="st1" d="M4090,1020L2370,2370l400,400L4090,1020z"/>
<path class="st2" d="M1020,4090l1350-1720l400,400L1020,4090z"/>
<path class="st3" d="M2560,540v330 M2560,4240v330 M2910,570l-57,325 M2267,4213l-57,327 M3250,662l-113,310 M1984,4138l-113,310
	 M2210,570l57,325 M2853,4213l57,327 M1870,662l113,310 M3135,4138l113,310 M1552,810l166,286 M3403,4014l165,286 M1265,1010
	l212,253 M3643,3845l212,253 M1015,1258l253,212 M3850,3638l253,212 M813,1548l286,165 M4019,3398l286,165 M665,1866l310,113
	 M4141,3129l310,113 M574,2202l326,58 M4220,2848l325,57 M545,2555h330 M4245,2555h330 M575,2905l325-57 M4220,2262l325-57
	 M668,3245l310-113 M4143,1980l310-113 M815,3563l286-165 M4021,1713l286-165 M1016,3850l253-212 M3849,1472l253-212 M1262,4100
	l212-253 M3640,1265l212-253 M1552,4300l166-286 M3403,1096l165-286 M2384,548l16,180 M2720,4384l16,180 M2038,610l47,174
	 M3035,4328l47,174 M1708,730l76,163 M3334,4219l77,163 M1404,904l103,148 M3613,4058l103,148 M1135,1130l127,127 M3858,3853
	l127,127 M910,1400l148,103 M4064,3610l146,100 M734,1703l163,76 M4223,3329l163,77 M614,2033l174,47 M4332,3030l174,47 M553,2380
	l180,16 M4389,2716l180,16 M555,2732l180-16 M4391,2396l180-16 M614,3077l174-47 M4332,2080l174-47 M734,3407l163-76 M4223,1781
	l163-76 M910,3710l148-103 M4064,1500l146-100 M1404,4206l103-148 M3612,1052l104-148 M1708,4380l77-163 M3335,890l77-163
	 M2038,4500l47-174 M3035,782l47-174 M2384,4560l16-180 M2720,724l16-180"/>
</svg>
